assets/svg/avatar_reg.svg

<svg fill="none" viewBox="0 0 404 404" xmlns="http://www.w3.org/2000/svg">
<mask id="a" x="0" y="0" width="404" height="404" mask-type="alpha" maskUnits="userSpaceOnUse">
<circle cx="202" cy="202" r="202" fill="#FCA326"/>
</mask>
<g mask="url(#a)">
<circle cx="202" cy="202" r="202" fill="#FCA326"/>
<path d="m381 345.75l-122.71-14.004h-108.4l-138.65 14.004v84.309h354.6l15.15-84.309z" fill="#0B0203"/>
<rect x="118.07" y="163.06" width="31.523" height="60.113" rx="15.761" fill="#FFD293"/>
<rect x="258.09" y="160.86" width="31.523" height="60.113" rx="15.761" fill="#FFD293"/>
<rect x="151.06" y="286.22" width="108.5" height="51.316" fill="#FFE8C9"/>
<rect transform="matrix(-1 0 0 1 277.88 52.366)" width="150.28" height="262.44" rx="73.308" fill="#FFE8C9"/>
<rect x="124" y="81" width="44" height="47" fill="#FFE8C9"/>
<path d="m205.3 314.81h-3.666c-25.749 0-48.398-13.275-61.474-33.355l9.043-8.431c13.311 15.944 31.884 26.758 52.431 26.758h3.666c20.547 0 39.12-10.814 52.431-26.758l9.043 8.431c-13.077 20.08-35.725 33.355-61.474 33.355z" fill="#FFD08E"/>
<path d="m192.11 163.79c9.531-2.566 15.468-2.639 24.559 0" stroke="#0B0203" stroke-width="5.8647"/>
<path d="m242.69 242.97h-74.041c2.321 6.353 12.609 19.06 35.188 19.06s35.31-12.707 38.853-19.06z" fill="#000"/>
<path d="m227.3 267.89h-43.252c1.357 2.933 7.366 8.797 20.556 8.797s20.627-5.864 22.696-8.797z" fill="#FFD08E"/>
<path d="m259.52 337.38h-108.39c3.399 7.877 18.458 23.629 51.51 23.629s51.689-15.752 56.876-23.629z" fill="#FFE8C9"/>
<path d="m234.63 242.97h-57.914c1.816 4.642 9.863 13.928 27.524 13.928s27.619-9.286 30.39-13.928z" fill="#fff"/>
<circle cx="241.96" cy="168.19" r="7.3308" fill="#000"/>
<circle cx="165.72" cy="168.19" r="7.3308" fill="#000"/>
<path d="m269.45 148.48c-14.295-5.94-28.957-4.766-42.886 0" stroke="#000" stroke-linecap="round" stroke-width="6.5978"/>
<path d="m138.59 148.48c14.295-5.94 28.957-4.766 42.886 0" stroke="#000" stroke-linecap="round" stroke-width="6.5978"/>
<path d="m170.85 225.5c17.887-11.436 29.934-1.588 33.722 4.765v5.498h-51.316c0-7.331 11.729-9.896 17.594-10.263z" fill="#000"/>
<path d="m237.56 225.5c-17.887-11.436-29.935-1.588-33.722 4.765v5.498h51.316c0-7.331-11.73-9.896-17.594-10.263z" fill="#000"/>
<path d="m199 167.92c1.646-1.408 3.46-1.899 4.884-1.923l0.01 0.064c0.156-0.024 0.321-0.042 0.494-0.053 0.173 0.011 0.338 0.029 0.494 0.053l0.01-0.064c1.425 0.024 3.239 0.515 4.885 1.923 2.056 1.758 3.891 4.985 4.326 10.635l7e-3 0.095 14.411 21.801 0.106 0.043c1.126 0.45 3.435 2.196 3.435 5.524 0 2.194-0.187 4.846-1.545 6.949-1.336 2.068-3.86 3.681-8.718 3.681h-7.697v0.366c0 1.043-0.01 2.46-1.136 3.642-1.117 1.172-3.414 2.194-8.189 2.222-7.468-0.057-10.102-4.087-10.102-5.864v-0.366h-7.697c-4.859 0-7.383-1.613-8.719-3.681-1.357-2.103-1.545-4.755-1.545-6.949 0-3.328 2.31-5.074 3.435-5.524l0.107-0.043 14.411-21.801 7e-3 -0.095c0.434-5.65 2.269-8.877 4.326-10.635z" clip-rule="evenodd" fill="#FFC370" fill-rule="evenodd"/>
<path d="m245.9 203.08c-30.497 0-32.256-25.169-29.324-37.753 0.855-2.933 7.331-9.677 26.391-13.196s28.468 5.376 30.79 10.263c3.421 13.562 2.639 40.686-27.857 40.686z" stroke="#0B0203" stroke-width="3.6654"/>
<path d="m283.24 180.22c-0.855-9.53-2.433-16.498 4.898-10.926 3.176 2.199 10.497-12.826 7.564-47.721 1.222-11.362-2.712-37.534-28.223-51.316-6.232-13.929-25.512-42.666-52.783-46.184-8.186-3.5433-27.93-8.5038-41.419 0-8.186 3.0545-24.851 11.509-26.024 20.893-7.331 2.5658-21.553 11.216-19.794 25.291-4.52 7.0865-13.122 27.271-11.363 51.316l4.532 45.521c0.411 0.313 0.805 0.577 1.178 0.828 2.398 1.611 3.953 2.656 3.953 12.298 1.589 2.077 9.911 8.064 9.031-6.598-0.88-14.661-2.81-22.725-3.665-24.925-1.596-5.555-2.969-12.604-3.502-20.143-0.502-2.839-0.764-5.761-0.764-8.744 0-6.069 1.085-11.885 3.071-17.265 2.872-9.8139 8.474-18.483 18.265-23.63 8.08-5.6439 17.91-8.9544 28.514-8.9544h47.65c26.215 0 47.704 20.236 49.699 45.939 1.172 4.654 1.851 9.611 1.851 14.837 0 28.737 2.199 44.962 3.299 49.483 1.392 2.81 4.147 7.404 4.032 3.299v-3.299z" fill="#0B0203" stroke="#000" stroke-width=".73308"/>
<path d="m285.94 167.83c-2.346 0-8.308 3.666-10.996 5.498l-1.833-14.661c4.399 2.345 10.386 2.688 12.829 2.565v6.598z" fill="#0B0203"/>
<path d="m121.73 168.56c2.345 0 8.308 3.666 10.996 5.498l1.833-14.661c-4.399 2.346-10.386 2.688-12.829 2.566v6.597z" fill="#0B0203"/>
<path d="m162.7 203.08c30.496 0 32.256-25.169 29.324-37.753-0.856-2.933-7.331-9.677-26.392-13.196-19.06-3.519-28.468 5.376-30.789 10.263-3.421 13.562-2.639 40.686 27.857 40.686z" stroke="#0B0203" stroke-width="3.6654"/>
</g>
</svg>

<svg width="404" height="404" viewBox="0 0 404 404" fill="none" xmlns="http://www.w3.org/2000/svg">
<mask id="mask0" mask-type="alpha" maskUnits="userSpaceOnUse" x="0" y="0" width="404" height="404">
<circle cx="202" cy="202" r="202" fill="#FCA326"/>
</mask>
<g mask="url(#mask0)">
<circle cx="202" cy="202" r="202" fill="#FCA326"/>
<path d="M381 345.748L258.293 331.744H149.897L11.2495 345.748V430.057H365.85L381 345.748Z" fill="#0B0203"/>
<rect x="118.067" y="163.061" width="31.5226" height="60.113" rx="15.7613" fill="#FFD293"/>
<rect x="258.086" y="160.862" width="31.5226" height="60.113" rx="15.7613" fill="#FFD293"/>
<rect x="151.056" y="286.219" width="108.497" height="51.3159" fill="#FFE8C9"/>
<rect width="150.282" height="262.444" rx="73.3085" transform="matrix(-1 0 0 1 277.879 52.3655)" fill="#FFE8C9"/>
<rect x="124" y="81" width="44" height="47" fill="#FFE8C9"/>
<path d="M205.304 314.81H201.638C175.889 314.81 153.24 301.535 140.164 281.455L149.207 273.024C162.518 288.968 181.091 299.782 201.638 299.782H205.304C225.851 299.782 244.424 288.968 257.735 273.024L266.778 281.455C253.701 301.535 231.053 314.81 205.304 314.81Z" fill="#FFD08E"/>
<path d="M192.108 163.794C201.639 161.228 207.576 161.155 216.667 163.794" stroke="#0B0203" stroke-width="5.86468"/>
<path d="M242.691 242.968H168.65C170.971 249.321 181.259 262.028 203.838 262.028C226.417 262.028 239.148 249.321 242.691 242.968Z" fill="black"/>
<path d="M227.296 267.892H184.044C185.401 270.825 191.41 276.689 204.6 276.689C217.79 276.689 225.227 270.825 227.296 267.892Z" fill="#FFD08E"/>
<path d="M259.519 337.375H151.133C154.532 345.252 169.591 361.004 202.643 361.004C235.695 361.004 254.332 345.252 259.519 337.375Z" fill="#FFE8C9"/>
<path d="M234.627 242.968H176.713C178.529 247.61 186.576 256.896 204.237 256.896C221.898 256.896 231.856 247.61 234.627 242.968Z" fill="white"/>
<circle cx="241.958" cy="168.193" r="7.33085" fill="black"/>
<circle cx="165.717" cy="168.193" r="7.33085" fill="black"/>
<path d="M269.449 148.475C255.154 142.535 240.492 143.709 226.563 148.475" stroke="black" stroke-width="6.59776" stroke-linecap="round"/>
<path d="M138.593 148.475C152.888 142.535 167.55 143.709 181.479 148.475" stroke="black" stroke-width="6.59776" stroke-linecap="round"/>
<path d="M170.849 225.501C188.736 214.065 200.783 223.913 204.571 230.266V235.764H153.255C153.255 228.433 164.984 225.868 170.849 225.501Z" fill="black"/>
<path d="M237.56 225.501C219.673 214.065 207.625 223.913 203.838 230.266V235.764H255.154C255.154 228.433 243.424 225.868 237.56 225.501Z" fill="black"/>
<path fill-rule="evenodd" clip-rule="evenodd" d="M198.999 167.917C200.645 166.509 202.459 166.018 203.883 165.994L203.893 166.058C204.049 166.034 204.214 166.016 204.387 166.005C204.56 166.016 204.725 166.034 204.881 166.058L204.891 165.994C206.316 166.018 208.13 166.509 209.776 167.917C211.832 169.675 213.667 172.902 214.102 178.552L214.109 178.647L228.52 200.448L228.626 200.491C229.752 200.941 232.061 202.687 232.061 206.015C232.061 208.209 231.874 210.861 230.516 212.964C229.18 215.032 226.656 216.645 221.798 216.645H214.101V217.011C214.101 218.054 214.091 219.471 212.965 220.653C211.848 221.825 209.551 222.847 204.776 222.875C197.308 222.818 194.674 218.788 194.674 217.011V216.645H186.977C182.118 216.645 179.594 215.032 178.258 212.964C176.901 210.861 176.713 208.209 176.713 206.015C176.713 202.687 179.023 200.941 180.148 200.491L180.255 200.448L194.666 178.647L194.673 178.552C195.107 172.902 196.942 169.675 198.999 167.917Z" fill="#FFC370"/>
<path d="M245.896 203.084C215.399 203.084 213.64 177.915 216.572 165.331C217.427 162.398 223.903 155.654 242.963 152.135C262.023 148.616 271.431 157.511 273.753 162.398C277.174 175.96 276.392 203.084 245.896 203.084Z" stroke="#0B0203" stroke-width="3.66542"/>
<path d="M283.245 180.219C282.39 170.689 280.812 163.721 288.143 169.293C291.319 171.492 298.64 156.467 295.707 121.572C296.929 110.21 292.995 84.0384 267.484 70.2564C261.252 56.3278 241.972 27.5909 214.701 24.0721C206.515 20.5288 186.771 15.5683 173.282 24.0721C165.096 27.1266 148.431 35.5815 147.258 44.965C139.927 47.5308 125.705 56.1812 127.464 70.2564C122.944 77.3429 114.342 97.5272 116.101 121.572L120.633 167.093C121.044 167.406 121.438 167.67 121.811 167.921C124.209 169.532 125.764 170.577 125.764 180.219C127.353 182.296 135.675 188.283 134.795 173.621C133.915 158.96 131.985 150.896 131.13 148.696C129.534 143.141 128.161 136.092 127.628 128.553C127.126 125.714 126.864 122.792 126.864 119.809C126.864 113.74 127.949 107.924 129.935 102.544C132.807 92.7301 138.409 84.0614 148.2 78.914C156.28 73.2701 166.11 69.9596 176.714 69.9596H224.364C250.579 69.9596 272.068 90.1952 274.063 115.899C275.235 120.553 275.914 125.51 275.914 130.736C275.914 159.473 278.113 175.698 279.213 180.219C280.605 183.029 283.36 187.623 283.245 183.518V180.219Z" fill="#0B0203" stroke="black" stroke-width="0.733085"/>
<path d="M285.943 167.826C283.597 167.826 277.635 171.492 274.947 173.324L273.114 158.663C277.513 161.008 283.5 161.351 285.943 161.228V167.826Z" fill="#0B0203"/>
<path d="M121.733 168.559C124.078 168.559 130.041 172.225 132.729 174.057L134.562 159.396C130.163 161.742 124.176 162.084 121.733 161.962V168.559Z" fill="#0B0203"/>
<path d="M162.703 203.084C193.199 203.084 194.959 177.915 192.027 165.331C191.171 162.398 184.696 155.654 165.635 152.135C146.575 148.616 137.167 157.511 134.846 162.398C131.425 175.96 132.207 203.084 162.703 203.084Z" stroke="#0B0203" stroke-width="3.66542"/>
</g>
</svg>
